X: 1
T: the Earl o' Deane
R: jig
Z: 2014 John Chambers <jc:trillian.mit.edu>
S: printed copy at http://www.ambaile.com/en/item/item_page.jsp?item_id=42368
M: 6/8
L: 1/8
K: D
A |\
"D"D2D F2F | A2A d2d | "G"e2e d2B | B2A "D"A2F |\
"G"G2G B2B | "D"A2A F2F | "F#m"A2A "D"d2d | d2"A"c "D"d2 |]
